X: 1
T: The Wedding (MacCleod's Farewell)
R: reel
M: 4/4
L: 1/8
K: Dmaj
DE|:E-FBF AFEF|D/D/D DE FABd|eefd efdB|ABeB dBAG|
E-F2 B AFEF|D/D/D DE FABd|eefd efdB|1ABde dDDE :|2 ABde dABd|

